48x48/apps/fritzing.svg

<svg xmlns="http://www.w3.org/2000/svg" width="48" height="48" version="1">
 <path style="opacity:0.2" d="m 28.207171,6.0253283 c -0.211326,-0.00328 -0.853606,-0.064225 -1.808403,0.015623 -0.749205,0.062652 -2.834186,0.093682 -4.999473,1.3611257 -2.644096,1.5477191 -4.396022,4.004497 -4.396022,7.618007 v 1.220522 c -1.596144,0.245714 -3.192448,0.90457 -4.222211,2.054382 C 11.514178,19.709565 11,21.398397 11,23.014989 c 0,1.616592 0.514181,3.303472 1.781062,4.718048 0.434736,0.485417 1.058118,0.80614 1.650217,1.152172 -0.835848,1.560264 -1.409386,3.271036 -1.411961,5.112521 v 0.0078 C 13.019318,40.009035 17.983646,45 23.994725,45 30.005802,45 34.968177,40.009036 34.968177,34.005541 v -0.0059 c -0.002,-1.842022 -0.57424,-3.553636 -1.410007,-5.114474 0.591714,-0.345927 1.215718,-0.66702 1.650217,-1.152172 1.266883,-1.414576 1.779109,-3.101456 1.779109,-4.718048 0,-1.616592 -0.512228,-3.305425 -1.779109,-4.720001 -0.103271,-0.115311 -0.278613,-0.165268 -0.392538,-0.273397 1.11343,-1.09114 1.845166,-2.398733 2.07986,-3.774829 0.274732,-1.61086 0.02935,-3.386142 -1.007707,-4.9816812 C 34.850953,7.6694999 32.925143,6.4899046 31.040857,6.2069 30.985647,6.19881 30.930308,6.191653 30.874859,6.185419 c 0,0 -1.178826,-0.1370045 -2.667688,-0.1601325 z"/>
 <path style="fill:#c2352a" d="m 28.207171,5.0253283 c -0.211326,-0.00328 -0.853606,-0.064225 -1.808403,0.015623 -0.749205,0.062652 -2.834186,0.093682 -4.999473,1.3611257 -2.644096,1.5477191 -4.396022,4.004497 -4.396022,7.618007 v 1.220522 c -1.596144,0.245714 -3.192448,0.90457 -4.222211,2.054382 C 11.514178,18.709565 11,20.398397 11,22.014989 c 0,1.616592 0.514181,3.303472 1.781062,4.718048 0.434736,0.485417 1.058118,0.80614 1.650217,1.152172 -0.835848,1.560264 -1.409386,3.271036 -1.411961,5.112521 v 0.0078 C 13.019318,39.009035 17.983646,44 23.994725,44 30.005802,44 34.968177,39.009036 34.968177,33.005541 v -0.0059 c -0.002,-1.842022 -0.57424,-3.553636 -1.410007,-5.114474 0.591714,-0.345927 1.215718,-0.66702 1.650217,-1.152172 1.266883,-1.414576 1.779109,-3.101456 1.779109,-4.718048 0,-1.616592 -0.512228,-3.305425 -1.779109,-4.720001 -0.103271,-0.115311 -0.278613,-0.165268 -0.392538,-0.273397 1.11343,-1.09114 1.845166,-2.398733 2.07986,-3.774829 0.274732,-1.61086 0.02935,-3.3861421 -1.007707,-4.9816812 C 34.850953,6.6694999 32.925143,5.4899046 31.040857,5.2069 30.985647,5.19881 30.930308,5.191653 30.874859,5.185419 c 0,0 -1.178826,-0.1370045 -2.667688,-0.1601325 z"/>
 <path style="opacity:0.2" d="m 28.130672,11.018447 c -0.411832,-0.0064 -0.857342,-0.0381 -1.312931,0 -0.911178,0.0762 -1.904272,0.114531 -2.892339,0.692918 -0.988065,0.578388 -1.921741,1.888772 -1.921741,3.304538 v 5.996183 h -3.983529 c -2.693509,-0.03823 -2.693509,4.035681 0,3.997456 h 3.983529 v 3.34943 c -2.38451,0.845996 -3.979981,3.106851 -3.983529,5.644845 0,3.3116 2.67523,5.996183 5.975294,5.996183 3.300063,0 5.975294,-2.684583 5.975294,-5.996183 -0.0027,-2.53871 -1.598347,-4.800562 -3.983529,-5.646797 v -3.347478 h 3.983529 c 2.693509,0.03823 2.693509,-4.035682 0,-3.997456 h -3.983529 v -5.8576 c 0.157278,-0.08025 0.604569,-0.224763 1.161214,-0.271311 1.165291,-0.09745 2.495542,0.105401 2.495542,0.105401 2.656148,0.490663 3.326517,-3.441252 0.655492,-3.842436 0,0 -0.933271,-0.1085 -2.168767,-0.127693 z m -4.135246,20.986642 c 1.100021,0 1.991765,0.894861 1.991765,1.998728 0,1.103866 -0.891744,1.998727 -1.991765,1.998727 -1.100021,0 -1.991765,-0.894861 -1.991765,-1.998727 0,-1.103867 0.891744,-1.998728 1.991765,-1.998728 z"/>
 <path style="fill:#f4f4f7" d="m 28.130672,10.018447 c -0.411832,-0.0064 -0.857342,-0.038102 -1.312931,0 -0.911178,0.0762 -1.904272,0.114531 -2.892339,0.692918 -0.988065,0.578388 -1.921741,1.888772 -1.921741,3.304538 v 5.996183 h -3.983529 c -2.693509,-0.03823 -2.693509,4.035681 0,3.997456 h 3.983529 v 3.34943 c -2.38451,0.845996 -3.979981,3.106851 -3.983529,5.644845 0,3.3116 2.67523,5.996183 5.975294,5.996183 3.300063,0 5.975294,-2.684583 5.975294,-5.996183 -0.0027,-2.53871 -1.598347,-4.800562 -3.983529,-5.646797 v -3.347478 h 3.983529 c 2.693509,0.03823 2.693509,-4.035682 0,-3.997456 h -3.983529 v -5.8576 c 0.157278,-0.08025 0.604569,-0.224763 1.161214,-0.271311 1.165291,-0.09745 2.495542,0.105401 2.495542,0.105401 2.656148,0.490663 3.326517,-3.441252 0.655492,-3.842436 0,0 -0.933271,-0.1085 -2.168767,-0.127693 z m -4.135246,20.986642 c 1.100021,0 1.991765,0.894861 1.991765,1.998728 0,1.103866 -0.891744,1.998727 -1.991765,1.998727 -1.100021,0 -1.991765,-0.894861 -1.991765,-1.998727 0,-1.103867 0.891744,-1.998728 1.991765,-1.998728 z"/>
 <path style="opacity:0.2;fill:#f4f4f7" d="M 27.582031 5.0019531 C 27.275696 4.9962879 26.875836 5.0010916 26.398438 5.0410156 C 25.649233 5.1036676 23.563725 5.1349 21.398438 6.4023438 C 18.754341 7.9500629 17.003906 10.406021 17.003906 14.019531 L 17.003906 15.019531 C 17.003906 11.406021 18.754341 8.9500629 21.398438 7.4023438 C 23.563725 6.1349 25.649233 6.1036676 26.398438 6.0410156 C 27.353234 5.9611676 27.995705 6.0221106 28.207031 6.0253906 C 29.695893 6.0485186 30.875 6.1855469 30.875 6.1855469 C 30.930449 6.1917809 30.985806 6.1989412 31.041016 6.2070312 C 32.925302 6.4900358 34.851623 7.6700861 35.888672 9.265625 C 36.570146 10.314091 36.903693 11.438884 36.978516 12.544922 C 37.081631 11.130268 36.777343 9.6328685 35.888672 8.265625 C 34.851623 6.6700861 32.925302 5.4900358 31.041016 5.2070312 C 30.985806 5.1989412 30.930449 5.1917809 30.875 5.1855469 C 30.875 5.1855469 29.695893 5.0485186 28.207031 5.0253906 C 28.101368 5.0237506 27.888367 5.0076184 27.582031 5.0019531 z M 17.003906 15.240234 C 15.407762 15.485948 13.811013 16.14511 12.78125 17.294922 C 11.514366 18.709499 11 20.399033 11 22.015625 C 11 22.181971 11.010336 22.348164 11.021484 22.515625 C 11.118396 21.054818 11.64431 19.564406 12.78125 18.294922 C 13.811013 17.14511 15.407762 16.485948 17.003906 16.240234 L 17.003906 15.240234 z M 35.330078 17.443359 C 35.164627 17.638893 35.004104 17.837545 34.816406 18.021484 C 34.930331 18.129613 35.105713 18.179611 35.208984 18.294922 C 36.345922 19.564405 36.870208 21.054818 36.966797 22.515625 C 36.977908 22.348164 36.988281 22.181971 36.988281 22.015625 C 36.988281 20.45445 36.50384 18.827209 35.330078 17.443359 z M 14.058594 28.664062 C 13.436863 30.011239 13.021688 31.455902 13.019531 32.998047 L 13.019531 33.005859 C 13.019531 33.152644 13.035138 33.29589 13.041016 33.441406 C 13.144605 31.810837 13.680623 30.286678 14.431641 28.884766 C 14.306816 28.811816 14.184139 28.736543 14.058594 28.664062 z M 33.929688 28.664062 C 33.804431 28.736387 33.683058 28.812002 33.558594 28.884766 C 34.308041 30.284396 34.840827 31.806171 34.945312 33.433594 C 34.950983 33.290638 34.96875 33.150039 34.96875 33.005859 L 34.96875 33 C 34.967075 31.457114 34.551263 30.011995 33.929688 28.664062 z"/>
</svg>

<svg xmlns="http://www.w3.org/2000/svg" width="48" height="48" version="1"><path style="opacity:.2" d="M28.207 6.025c-.211-.003-.853-.064-1.808.016-.75.063-2.834.094-5 1.361-2.644 1.548-4.396 4.005-4.396 7.618v1.22c-1.596.246-3.192.905-4.222 2.055C11.514 19.71 11 21.398 11 23.015c0 1.617.514 3.303 1.781 4.718.435.485 1.058.806 1.65 1.152-.836 1.56-1.41 3.271-1.412 5.113v.008C13.02 40.009 17.984 45 23.995 45c6.01 0 10.973-4.991 10.973-10.994V34c-.002-1.842-.574-3.554-1.41-5.115.592-.346 1.216-.667 1.65-1.152 1.267-1.415 1.78-3.101 1.78-4.718s-.513-3.305-1.78-4.72c-.103-.115-.278-.165-.392-.273 1.113-1.092 1.845-2.4 2.08-3.775.274-1.611.03-3.386-1.008-4.982-1.037-1.596-2.963-2.775-4.847-3.058a4.99 4.99 0 0 0-.166-.022s-1.179-.137-2.668-.16z"/><path style="fill:#c2352a" d="M28.207 5.025c-.211-.003-.853-.064-1.808.016-.75.063-2.834.094-5 1.361-2.644 1.548-4.396 4.005-4.396 7.618v1.22c-1.596.246-3.192.905-4.222 2.055C11.514 18.71 11 20.398 11 22.015c0 1.617.514 3.303 1.781 4.718.435.485 1.058.806 1.65 1.152-.836 1.56-1.41 3.271-1.412 5.113v.008C13.02 39.009 17.984 44 23.995 44c6.01 0 10.973-4.991 10.973-10.994V33c-.002-1.842-.574-3.554-1.41-5.115.592-.346 1.216-.667 1.65-1.152 1.267-1.415 1.78-3.101 1.78-4.718s-.513-3.305-1.78-4.72c-.103-.115-.278-.165-.392-.273 1.113-1.092 1.845-2.4 2.08-3.775.274-1.611.03-3.386-1.008-4.982-1.037-1.596-2.963-2.775-4.847-3.058a4.99 4.99 0 0 0-.166-.022s-1.179-.137-2.668-.16z"/><path style="opacity:.2" d="M28.13 11.018c-.411-.006-.857-.038-1.312 0-.911.077-1.905.115-2.893.693-.988.579-1.921 1.89-1.921 3.305v5.996H18.02c-2.693-.038-2.693 4.036 0 3.998h3.984v3.349a5.995 5.995 0 0 0-3.984 5.645c0 3.311 2.675 5.996 5.975 5.996s5.976-2.685 5.976-5.996a5.995 5.995 0 0 0-3.984-5.647V25.01h3.984c2.693.038 2.693-4.036 0-3.998h-3.984v-5.858c.157-.08.605-.224 1.161-.27 1.166-.098 2.496.105 2.496.105 2.656.49 3.326-3.442.655-3.843 0 0-.933-.108-2.168-.128zm-4.135 20.987c1.1 0 1.992.895 1.992 1.999a1.995 1.995 0 0 1-1.992 1.999c-1.1 0-1.991-.895-1.991-2 0-1.103.891-1.998 1.991-1.998z"/><path style="fill:#f4f4f7" d="M28.13 10.018c-.411-.006-.857-.038-1.312 0-.911.077-1.905.115-2.893.693-.988.579-1.921 1.89-1.921 3.305v5.996H18.02c-2.693-.038-2.693 4.036 0 3.998h3.984v3.349a5.995 5.995 0 0 0-3.984 5.645c0 3.311 2.675 5.996 5.975 5.996s5.976-2.685 5.976-5.996a5.995 5.995 0 0 0-3.984-5.647V24.01h3.984c2.693.038 2.693-4.036 0-3.998h-3.984v-5.858c.157-.08.605-.224 1.161-.27 1.166-.098 2.496.105 2.496.105 2.656.49 3.326-3.442.655-3.843 0 0-.933-.108-2.168-.128zm-4.135 20.987c1.1 0 1.992.895 1.992 1.999a1.995 1.995 0 0 1-1.992 1.999c-1.1 0-1.991-.895-1.991-2 0-1.103.891-1.998 1.991-1.998z"/><path style="opacity:.2;fill:#f4f4f7" d="M27.582 5.002c-.306-.006-.706 0-1.184.039-.749.063-2.834.094-5 1.361-2.644 1.548-4.394 4.004-4.394 7.618v1c0-3.614 1.75-6.07 4.394-7.618 2.166-1.267 4.251-1.298 5-1.361.955-.08 1.598-.019 1.809-.016 1.489.024 2.668.16 2.668.16l.166.022c1.884.283 3.81 1.463 4.848 3.059a6.809 6.809 0 0 1 1.09 3.279 6.857 6.857 0 0 0-1.09-4.28C34.852 6.67 32.925 5.49 31.04 5.208a4.992 4.992 0 0 0-.166-.021s-1.18-.137-2.668-.16c-.106-.002-.319-.018-.625-.024zM17.004 15.24c-1.596.246-3.193.905-4.223 2.055C11.514 18.709 11 20.399 11 22.015c0 .167.01.333.021.5.097-1.46.623-2.95 1.76-4.22 1.03-1.15 2.627-1.81 4.223-2.055v-1zm18.326 2.203c-.165.196-.326.395-.514.578.114.109.29.159.393.274 1.137 1.27 1.661 2.76 1.758 4.22.01-.167.021-.333.021-.5 0-1.56-.484-3.188-1.658-4.572zM14.06 28.664c-.622 1.347-1.037 2.792-1.04 4.334v.008c0 .147.016.29.022.435.104-1.63.64-3.154 1.39-4.556-.124-.073-.247-.148-.372-.22zm19.87 0c-.125.072-.246.148-.37.22.749 1.4 1.282 2.922 1.386 4.55.006-.143.024-.284.024-.428V33c-.002-1.543-.418-2.988-1.04-4.336z"/></svg>
